MonoIcons/scalable/status/security-medium-rtl-symbolic.svg

<?xml version="1.0" encoding="UTF-8"?>
<svg height="16px" viewBox="0 0 16 16" width="16px" xmlns="http://www.w3.org/2000/svg">
    <path d="m 14 0 c 0.550781 0 1 0.449219 1 1 v 8 c 0 2.5 -1.816406 4.246094 -3.445312 5.332031 c -1.628907 1.085938 -3.238282 1.617188 -3.238282 1.617188 c -0.207031 0.070312 -0.429687 0.070312 -0.632812 0 c 0 0 -1.609375 -0.53125 -3.238282 -1.617188 c -1.628906 -1.085937 -3.445312 -2.832031 -3.445312 -5.332031 v -8 c 0 -0.550781 0.445312 -1 1 -1 z m -1 2 h -10 v 7 c 0 1.5 1.183594 2.753906 2.554688 3.667969 c 1.214843 0.808593 2.179687 1.128906 2.445312 1.226562 c 0.265625 -0.097656 1.230469 -0.417969 2.445312 -1.226562 c 1.371094 -0.914063 2.554688 -2.167969 2.554688 -3.667969 z m -1 1 v 6 c 0 1 -0.867188 2.007812 -2.109375 2.835938 c -0.933594 0.621093 -1.472656 0.785156 -1.890625 0.949218 v -9.785156 z m 0 0" fill="#2e3436"/>
</svg>

<svg width="16" height="16" viewBox="0 0 16 16" fill="none" xmlns="http://www.w3.org/2000/svg">
<g clip-path="url(#clip0_231_945)">
<path d="M14 0C14.5508 0 15 0.449219 15 1V9C15 11.5 13.1836 13.2461 11.5547 14.332C9.92578 15.418 8.31641 15.9492 8.31641 15.9492C8.10938 16.0195 7.88672 16.0195 7.68359 15.9492C7.68359 15.9492 6.07422 15.418 4.44531 14.332C2.81641 13.2461 1 11.5 1 9V1C1 0.449219 1.44531 0 2 0H14ZM13 2H3V9C3 10.5 4.18359 11.7539 5.55469 12.668C6.76953 13.4766 7.73438 13.7969 8 13.8945C8.26562 13.7969 9.23047 13.4766 10.4453 12.668C11.8164 11.7539 13 10.5 13 9V2ZM12 3V9C12 10 11.1328 11.0078 9.89062 11.8359C8.95703 12.457 8.41797 12.6211 8 12.7852V3H12Z" fill="#2E3436"/>
</g>
<defs>
<clipPath id="clip0_231_945">
<rect width="16" height="16" fill="white"/>
</clipPath>
</defs>
</svg>
